X:19168
T:Ya se van los pastores (CT 442)
C:Tradicional
S:Música Tradicional Asturiana, (C) Tello & Tito. Asturies, 2001.
S:http://pagina.de/MusTradAst <telloytito@asturies.org>
N:Canción de empleo indeterminado, dictada por Prudencia Rodríguez Martínez, La Policana, de sesenta y siete años, de San Esteban de Relamiego, ayuntamiento de Tinéu, quien dice la aprendió en El Valle, ayuntamiento de Somiedu.
O:El Valle (Somiedu)
A:Asturies
Z:Cancioneru de Torner 442
M:2/4
L:1/8
Q:1/4=112
W:Ya se van los pastores,
W:ya se va el rumbo,
W:ya se va la alegría
W:por todo el mundo.
W:
W:Ya se van los pastores
W:cañada abajo,
W:ya las babianas ponen
W:los pelendrajos.
W:
W:Ya suben los pastores
W:cañada arriba,
W:ya las babianas ponen
W:la ropa fina.
K:C
GG
|c2 cd|e2 e2|e2 gf|e2 d2-|d2 de|d2 cB|A2 B2|B2 cB|A2 G2-|G ||


